Newaita-dark/.DP/16/deadbeef-panel.svg

<svg xmlns="http://www.w3.org/2000/svg" xmlns:xlink="http://www.w3.org/1999/xlink" width="16px" height="16px" viewBox="0 0 16 16" version="1.1">
<g id="surface1">
<path style=" stroke:none;fill-rule:nonzero;fill:rgb(93.333334%,93.333334%,93.333334%);fill-opacity:1;" d="M 3.449219 2 C 3.441406 2 3.429688 2 3.417969 2 C 3.117188 2.003906 2.824219 2.167969 2.664062 2.445312 C 2.5625 2.621094 2.527344 2.824219 2.554688 3.015625 L 2.550781 2.96875 L 2.550781 7.363281 C 2.527344 7.542969 2.558594 7.734375 2.65625 7.902344 L 2.675781 7.9375 C 2.882812 8.292969 3.3125 8.445312 3.695312 8.328125 C 3.796875 8.296875 3.886719 8.253906 3.96875 8.195312 L 3.941406 8.210938 L 7.40625 6.210938 L 10.574219 8.039062 L 2.992188 12.417969 C 2.566406 12.664062 2.421875 13.214844 2.664062 13.636719 C 2.910156 14.058594 3.460938 14.207031 3.882812 13.960938 L 12.792969 8.816406 C 13.078125 8.652344 13.242188 8.351562 13.238281 8.039062 C 13.242188 7.730469 13.078125 7.429688 12.792969 7.261719 L 3.941406 2.152344 L 3.96875 2.171875 C 3.882812 2.109375 3.78125 2.058594 3.675781 2.03125 C 3.601562 2.011719 3.527344 2 3.449219 2 Z M 3.449219 2 "/>
</g>
</svg>

<svg xmlns="http://www.w3.org/2000/svg" width="16pt" height="16pt" viewBox="0 0 16 16"><path d="M3.45 2h-.032a.89.89 0 0 0-.863 1.016l-.004-.047v4.394a.853.853 0 0 0 .105.54l.02.035a.883.883 0 0 0 1.02.39.936.936 0 0 0 .273-.133l-.028.016 3.465-2 3.168 1.828-7.582 4.379a.898.898 0 0 0-.328 1.219.897.897 0 0 0 1.219.324l8.91-5.145a.885.885 0 0 0 .445-.777.894.894 0 0 0-.445-.777l-8.852-5.11.028.02A.884.884 0 0 0 3.449 2zm0 0" fill="#bdbdbd"/></svg>
